X: 0203
T: Bonnie Geordies Wig - 8x32R
P: Hummle Doddies
C: Adam Allardyce
B: Miss Milligan's Miscellany v.2 #0203
B: Originally Ours v.1 p.179 #MMM-0203
Z: 2019 John Chambers <jc:trillian.mit.edu>
M: 4/4
L: 1/8
R: reel
K: A
%
|: (3e/f/g/ |\
"A"a2ec "C#/A"A2cA | "E"GABc "B/E7"B2GF | "E"E2ef "G#/E7"g2fg | "A"agfa "C#/A"aecA |\
"A"a2ec "C#/A"A2cA | "E"GABc "B/E7"B2fg | "A"a2ga "C#/A"fecA | "E7"GABc "A"A3 ||
e |\
"A"cece "D"fefa | "A"ceec "B/E7"B3g | "A"a2ga "C#/A"fecA | "E7"GABc "A"A2e2 |\
"A"cece "D"fefa | "A"ceec "B/E7"B3g | "A"agfa "C#/A"fecA | "E7"GABc "A"A3 :|
